X:382
T: Grn, ja grn (4-81), S. 104
N: P0652
O: Lothringen
S: PINCK, Louis: Verklingende Weisen Bd 4, Kassel 1939]
R: Berufslied, Liebe]
M: 2/4
L: 1/8
K: G
 | G2G2 | B2B2 | AGAB | G2D2 |
G2G2 | B2B2 | A2A2 | G4 |
d2d2 | e4 | c2c2 | d3
B | B2B2 | c2c2 | d2d2 | B4 |
d2d2 | e4 | c2c2 | d3
B | B2B2 | c2c2 | d2d2 | B4

@@@ Tune index: 7932
